apps/earn-protocol-landing-page/public/img/branding/logo-dark.svg

<svg width="110" height="19" viewBox="0 0 110 19" fill="none" xmlns="http://www.w3.org/2000/svg">
  <path fill-rule="evenodd" clip-rule="evenodd" d="M101.189 5.81355V4.90489C101.189 3.48375 102.223 3.1457 102.974 3.1457H104.059V0.380946C103.775 0.251753 103.077 0.122559 102.352 0.122559C99.5331 0.122559 97.7223 1.9851 97.7223 4.85536V5.8157H95.92V8.75271H97.7223V18.5671H101.2V8.75271H106.027V18.5671H109.505V5.81355H101.189ZM35.8319 7.09042C36.7662 6.08937 38.1289 5.50588 39.8875 5.50564C43.4957 5.50613 45.6808 7.96067 45.6808 11.4313V18.5671H42.2033V11.1471C42.2033 9.5128 41.2409 8.69888 39.8865 8.69888C38.5321 8.69888 37.5696 9.51496 37.5696 11.1471V18.5671H34.0921V11.1471C34.0921 9.5128 33.1296 8.69888 31.7752 8.69888C30.4209 8.69888 29.4584 9.51496 29.4584 11.1471V18.5671H25.9809V11.4313C25.9809 7.95817 28.1664 5.50564 31.7752 5.50564C33.5344 5.50564 34.8974 6.09132 35.8319 7.09042ZM6.2506 10.8768L6.25049 10.8768C5.85589 10.7969 5.45993 10.7167 5.04072 10.6196C4.11698 10.4042 3.66049 10.1071 3.66049 9.38361C3.66049 8.66012 4.42059 8.11751 5.36801 8.11751C6.88604 8.11751 7.30376 9.07354 7.41142 9.82502L10.5745 9.17905C10.4109 7.8096 9.13832 5.50779 5.34217 5.50779C2.4676 5.50779 0.35313 7.39618 0.35313 9.66999C0.35313 11.9438 2.11017 13.0183 3.82414 13.4511C4.20249 13.5468 4.51781 13.6178 4.83068 13.6883C5.10184 13.7494 5.37116 13.81 5.67807 13.886C6.61473 14.1186 7.29515 14.308 7.29515 14.9734C7.29515 15.6387 6.72454 16.2395 5.53165 16.2395C3.95979 16.2395 3.36765 15.3093 3.28583 14.3188L0 14.9648C0.163646 16.3945 1.54602 18.8772 5.55964 18.8772C9.05865 18.8772 10.7382 16.8123 10.7382 14.743C10.7382 12.5682 9.50006 11.567 6.90541 11.0136V11.0115C6.6851 10.9648 6.46805 10.9208 6.2506 10.8768ZM20.6538 13.2336C20.6538 14.8657 19.5879 15.6818 18.2314 15.6818C16.8749 15.6818 15.809 14.8679 15.809 13.2336V5.81355H12.3316V12.9494C12.3316 16.4204 14.6226 18.8751 18.2314 18.8751C21.8402 18.8751 24.1313 16.4225 24.1313 12.9494V5.81355H20.6538V13.2336ZM61.632 5.50564C59.8738 5.50611 58.5115 6.08957 57.5774 7.09042C56.6429 6.09132 55.2799 5.50564 53.5207 5.50564C49.9119 5.50564 47.7264 7.95817 47.7264 11.4313V18.5671H51.2039V11.1471C51.2039 9.51496 52.1664 8.69888 53.5207 8.69888C54.8751 8.69888 55.8376 9.5128 55.8376 11.1471V18.5671H59.3151V11.1471C59.3151 9.51496 60.2776 8.69888 61.632 8.69888C62.9863 8.69888 63.9488 9.5128 63.9488 11.1471V18.5671H67.4263V11.4313C67.4263 7.96101 65.2416 5.50661 61.632 5.50564ZM87.0336 7.83974C87.5547 6.54565 89.0771 5.65852 90.5369 5.65852H90.5391C90.9676 5.65852 91.3466 5.7102 91.6717 5.81355V8.75056H90.5929C88.7411 8.75056 87.3179 10.021 87.3179 12.2022V18.565H83.8404V5.81355H87.0336V7.83974ZM105.325 3.14785C105.325 1.8369 106.38 0.782039 107.663 0.781448C108.946 0.782039 110 1.8369 110 3.14785H105.325ZM107.663 0.781448L107.662 0.781448H107.664L107.663 0.781448ZM92.519 16.2007C91.2362 16.2013 90.1817 17.2562 90.1817 18.5671H94.8563C94.8563 17.2562 93.8018 16.2013 92.519 16.2007ZM75.8971 15.9273C77.4776 15.9273 78.3195 15.0746 78.7652 14.0195L81.7948 15.0143C81.0713 17.1352 79.0171 18.8751 75.8713 18.8751C72.2625 18.8751 69.0843 16.3665 69.0843 12.0751C69.0843 8.01631 72.1849 5.50564 75.5504 5.50564C79.6114 5.50564 82.0424 7.99693 82.0424 12.0816C82.0424 12.4523 82.0117 12.7751 81.9967 12.9332C81.9918 12.9845 81.9886 13.0185 81.9886 13.0312H72.5854C72.6651 14.7129 74.1336 15.9273 75.8971 15.9273ZM78.5413 10.8069C78.4875 9.53864 77.6326 8.29838 75.6021 8.29838C73.759 8.29838 72.7426 9.64415 72.663 10.8069H78.5413Z" fill="url(#paint0_linear_7157_6718)"/>
  <defs>
    <linearGradient id="paint0_linear_7157_6718" x1="0" y1="9.49988" x2="110" y2="9.49988" gradientUnits="userSpaceOnUse">
      <stop stop-color="#FF49A4"/>
      <stop offset="0.93" stop-color="#B049FF"/>
    </linearGradient>
  </defs>
</svg>

<svg xmlns="http://www.w3.org/2000/svg" width="110" height="19" fill="none" xmlns:v="https://vecta.io/nano"><path fill-rule="evenodd" d="M101.189 5.814v-.909c0-1.421 1.034-1.759 1.785-1.759h1.085V.381c-.284-.129-.982-.258-1.707-.258-2.819 0-4.63 1.863-4.63 4.733v.96H95.92v2.937h1.802v9.814h3.478V8.753h4.827v9.814h3.478V5.814h-8.316zM35.832 7.09c.934-1.001 2.297-1.585 4.056-1.585 3.608 0 5.793 2.455 5.793 5.926v7.136h-3.477v-7.42c0-1.634-.962-2.448-2.317-2.448s-2.317.816-2.317 2.448v7.42h-3.477v-7.42c0-1.634-.962-2.448-2.317-2.448s-2.317.816-2.317 2.448v7.42h-3.478v-7.136c0-3.473 2.186-5.926 5.794-5.926 1.759 0 3.122.586 4.057 1.585zM6.251 10.877h0l-1.21-.257c-.924-.215-1.38-.512-1.38-1.236s.76-1.266 1.708-1.266c1.518 0 1.936.956 2.043 1.708l3.163-.646c-.164-1.369-1.436-3.671-5.232-3.671C2.468 5.508.353 7.396.353 9.67s1.757 3.348 3.471 3.781l1.007.237.847.198c.937.233 1.617.422 1.617 1.087s-.571 1.266-1.763 1.266c-1.572 0-2.164-.93-2.246-1.921L0 14.965c.164 1.43 1.546 3.912 5.56 3.912 3.499 0 5.179-2.065 5.179-4.134 0-2.175-1.238-3.176-3.833-3.729v-.002l-.655-.135zm14.403 2.357c0 1.632-1.066 2.448-2.422 2.448s-2.422-.814-2.422-2.448v-7.42h-3.477v7.136c0 3.471 2.291 5.926 5.9 5.926s5.9-2.453 5.9-5.926V5.814h-3.477v7.42zm40.978-7.728c-1.758 0-3.12.584-4.055 1.585-.934-.999-2.297-1.585-4.057-1.585-3.609 0-5.794 2.453-5.794 5.926v7.136h3.477v-7.42c0-1.632.963-2.448 2.317-2.448s2.317.814 2.317 2.448v7.42h3.477v-7.42c0-1.632.962-2.448 2.317-2.448s2.317.814 2.317 2.448v7.42h3.477v-7.136c0-3.47-2.185-5.925-5.794-5.926zM87.034 7.84c.521-1.294 2.043-2.181 3.503-2.181h.002c.428 0 .807.052 1.133.155v2.937h-1.079c-1.852 0-3.275 1.27-3.275 3.452v6.363H83.84V5.814h3.193V7.84zm18.291-4.692c0-1.311 1.055-2.366 2.338-2.366S110 1.837 110 3.148h-4.675zm2.338-2.366h-.001.002-.001zM92.519 16.201c-1.283.001-2.337 1.055-2.337 2.366h4.675c0-1.311-1.055-2.366-2.337-2.366zm-16.622-.273c1.581 0 2.422-.853 2.868-1.908l3.03.995c-.724 2.121-2.778 3.861-5.923 3.861-3.609 0-6.787-2.509-6.787-6.8 0-4.059 3.101-6.569 6.466-6.569 4.061 0 6.492 2.491 6.492 6.576 0 .371-.031.694-.046.852l-.008.098h-9.403c.08 1.682 1.548 2.896 3.312 2.896zm2.644-5.12c-.054-1.268-.909-2.509-2.939-2.509-1.843 0-2.859 1.346-2.939 2.509h5.878z" fill="url(#A)"/><defs><linearGradient id="A" x1="0" y1="9.5" x2="110" y2="9.5" gradientUnits="userSpaceOnUse"><stop stop-color="#ff49a4"/><stop offset=".93" stop-color="#b049ff"/></linearGradient></defs></svg>
